X:1
T:Het kerksken van te lande
T:Het kerksken van te lande
T:August De Boeck
C:August De Boeck
%%score [ 1 2 3 4 ]
L:1/8
Q:1/4=120
M:4/4
K:C
V:1 treble nm="Soprano" snm="S"
V:2 treble nm="Alto" snm="A"
V:3 treble-8 nm="Tenor" snm="T"
V:4 bass nm="Bass" snm="B"
V:1
 z8 | A2 AA AAAA | BBGG A2 A2 | z AAA BEEE | EEDC D2 D2 |[M:3/4] AA AA AA |[M:2/4] BB GG | A2 A2 | %8
w: |God en ver- smaadt het niet het|kerk- sken van te lan- de,|zijn gro- ver wie- rook en zijn|on- ge- school- de zan- gen,|het ge- bed van 'tboe- re-|volk van knechts en|mei- den,|
[M:4/4] z2 AA A2 AB | G3 G GGDD | F2 FF EEDC |[M:3/4] E2 (3EEE DC |[M:2/4] D2 D2 | %13
w: en de scha- me- le|bloe- men ge- plukt in de|wei- de, 'toot- moe- dig bui- gend|hoofd tus- sen ver- eel- te|han- den,|
[M:3/4] z2 AA AA |[M:4/4] B2 BG AABc | B2 B2 z2 BB | d2 cB A2 AA | (3c2 B2 A2 G2 G2 | z2 FG E2 DC | %19
w: en 'tA- ve Ma-|ri- a van 'tvroom on- schul- dig|har te, O, ver-|delg in mijn hart al- le|trot- se ge- dach- ten.|'tKwa- de kruid dat zich|
[M:3/4] E2 EE (3EDC |[M:4/4] D2 D2 z2 DD | (3F2 E2 D2 C2 z C | FFED C2 CC | DDDD E3 z | %24
w: mengt bij den heer- lijk- sten|veld- oogst, en ver-|leen mij 'ge- loof, de|hoop, de war- me lief- de van|hen die zo- der klacht,|
 FF (3FFF G2 G2 | z FFG A2 z F | FGAF FG D2 |[M:3/4] z E EC EF |[M:2/4] G2 G2 | %29
w: al hun scha- mel- heid dra- gen,|dee- moe- dig vroom, zie-|hier mijn hart, zie- hier mijn geest,|mijn hoofd en zijn ge-|pein- zen,|
[M:3/4] z2 GG (3EGA |[M:2/4] B4 | z A AA | G2 GG | A3 z | GA BG | A4 |] %36
w: en mijn hand die dit|schreef...|in naam des|Va- ders, des|Zoons|en des Heil' gen|Geest.|
V:2
 F8 | F8 | G4 F4 | A4 G4 | G8 |[M:3/4] F6 |[M:2/4] D4 | F4 |[M:4/4] E8 | E4 D4- | D4 C4 | %11
w: Noe|noe|noe _|noe _|noe|noe|_||noe|_ _||
[M:3/4] C6 |[M:2/4] D4 |[M:3/4] F6 |[M:4/4] D8 | G4 G4 | F4 E4 | F4 D4 | F4 E4 |[M:3/4] G6 | %20
w: ||noe|_|* noe|_ _||noe _|_|
[M:4/4] D8 | C4 E4 | F4 E4 | D4 G4 | D4 E4 | C4 F4 | A4 D4 |[M:3/4] E6- |[M:2/4] E4 |[M:3/4] E6 | %30
w: |noe _|_ _||noe _|noe _|noe _|noe|_|noe|
[M:2/4] D4 | D4- | D4- | D4 | D4- | D4 |] %36
w: _|noe|_||noe|_|
V:3
 A8 | A8 | d4 A4 | e4 B4 | c4 B4 |[M:3/4] A6 |[M:2/4] B4 | A4 |[M:4/4] c8 | B8 | A8 |[M:3/4] G6 | %12
w: Noe|noe|noe _|noe _|noe _|noe|_||noe|_|||
[M:2/4] B4 |[M:3/4] A6 |[M:4/4] B4 A4 | d4 d4 | A4 c4 | A4 B4 | A4 c4 |[M:3/4] B6 |[M:4/4] B8 | %21
w: |noe|_ _|* noe|_ _||noe _|_||
 A4 G4 | A8 | B8 | A4 G4 | A8 | c4 A4 |[M:3/4] c6 |[M:2/4] c4 |[M:3/4] B6 |[M:2/4] B4 | A4 | G4 | %33
w: noe _|_||noe _|noe|_ _|noe|_|noe|_|noe|_|
 A4 | G4 | A4 |] %36
w: |noe|_|
V:4
 D,8 | D,8 | G,,4 D,4 | A,,4 E,4 | C,4 G,,4 |[M:3/4] D,6 |[M:2/4] G,4 | D,4 |[M:4/4] A,8 | %9
w: Noe|noe|noe _|noe _|noe _|noe|_|||
 E,4 G,4 | D,4 A,,4 |[M:3/4] C,6 |[M:2/4] G,4 |[M:3/4] D,6 |[M:4/4] G,4 D,4 | G,4 G,4 | D,4 A,,4 | %17
w: ||||noe|_ _|* noe|_ _|
 F,4 G,4 | D,4 A,,4 |[M:3/4] E,6 |[M:4/4] G,8 | F,4 C,4 | D,4 A,,4 | G,4 E,4 | D,4 C,4 | F,4 D,4 | %26
w: |noe _|_||noe _|_ _||noe _|noe _|
 F,4 D,4 |[M:3/4] A,,6 |[M:2/4] C,4 |[M:3/4] E,6 |[M:2/4] G,4 | D,4- | D,4- | D,4 | D,4- | D,4 |] %36
w: noe _|noe|_|noe|_|noe|_||noe|_|

